<?xml version="1.0" encoding="UTF-8"?>
<map version="1.12" tiledversion="1.12.2" orientation="orthogonal" renderorder="right-down" width="48" height="32" tilewidth="32" tileheight="32" infinite="0" backgroundcolor="#81897a" nextlayerid="8" nextobjectid="55">
 <properties><property name="district_id" value="Khorinis_Industrial"/><property name="import_source" value="Four Crowns khorinis-district-layout-v2.json"/><property name="worldscape_schema" value="four-crowns-source-parity-v0"/><property name="fidelity_role" value="golden benchmark before Harbor authoring"/></properties>
 <tileset firstgid="1" source="../industrial-assets.tsx"/>
 <imagelayer id="1" name="00 Exact Four Crowns blockout" locked="1"><image source="industrial-blockout-base.svg" width="1536" height="1024"/></imagelayer>
 <objectgroup id="2" name="10 Building placements — drag these" color="#f4d03f"><object id="1" name="Mine" type="Building" gid="1" x="337.1437448218724" y="346.94780447390224" width="66.49212924606462" height="66.49212924606462"><properties><property name="worldscape_id" value="site.industrial.mine"/><property name="source_x" type="int" value="380"/><property name="source_y" type="int" value="335"/><property name="delivery_status" value="source-parity"/></properties></object><object id="2" name="Quarry" type="Building" gid="2" x="845.1428571428571" y="239.28571428571428" width="109.71428571428571" height="109.71428571428571"><properties><property name="worldscape_id" value="site.industrial.quarry"/><property name="source_x" type="int" value="900"/><property name="source_y" type="int" value="229"/><property name="delivery_status" value="source-parity"/></properties></object><object id="3" name="Logging yard" type="Building" gid="3" x="1179.952380952381" y="465.57142857142856" width="134.0952380952381" height="134.0952380952381"><properties><property name="worldscape_id" value="site.industrial.logging"/><property name="source_x" type="int" value="1247"/><property name="source_y" type="int" value="453"/><property name="delivery_status" value="source-parity"/></properties></object><object id="4" name="Foundry" type="Building" gid="4" x="1060.8347107438017" y="748.2809917355372" width="152.33057851239667" height="152.33057851239667"><properties><property name="worldscape_id" value="site.industrial.foundry"/><property name="source_x" type="int" value="1137"/><property name="source_y" type="int" value="734"/><property name="delivery_status" value="source-parity"/></properties></object><object id="5" name="Cottage row" type="Building" gid="5" x="234.8486384976526" y="772.1726798122065" width="260.3027230046948" height="151.60488262910798"><properties><property name="worldscape_id" value="site.industrial.cottage"/><property name="source_x" type="int" value="365"/><property name="source_y" type="int" value="736"/><property name="delivery_status" value="source-parity"/></properties></object></objectgroup>
 <objectgroup id="3" name="20 Site reservations" color="#f4d03f" opacity="0.7" visible="0"><object id="6" name="Mine reservation" type="SiteReservation" x="0" y="0"><properties><property name="worldscape_id" value="reservation.industrial.mine"/><property name="reservation_not_footprint" type="bool" value="true"/></properties><polygon points="339,326 380,305 428,318 477,348 466,391 409,407 354,397 326,371"/></object><object id="7" name="Quarry reservation" type="SiteReservation" x="0" y="0"><properties><property name="worldscape_id" value="reservation.industrial.quarry"/><property name="reservation_not_footprint" type="bool" value="true"/></properties><polygon points="749,148 823,118 903,133 949,187 928,265 849,295 750,252 728,196"/></object><object id="8" name="Logging yard reservation" type="SiteReservation" x="0" y="0"><properties><property name="worldscape_id" value="reservation.industrial.logging"/><property name="reservation_not_footprint" type="bool" value="true"/></properties><polygon points="1147,382 1215,359 1309,395 1338,443 1286,503 1185,506 1137,453"/></object><object id="9" name="Foundry reservation" type="SiteReservation" x="0" y="0"><properties><property name="worldscape_id" value="reservation.industrial.foundry"/><property name="reservation_not_footprint" type="bool" value="true"/></properties><polygon points="1026,666 1124,646 1202,687 1220,749 1161,801 1051,786 1007,733"/></object><object id="10" name="Cottage row reservation" type="SiteReservation" x="0" y="0"><properties><property name="worldscape_id" value="reservation.industrial.cottage"/><property name="reservation_not_footprint" type="bool" value="true"/></properties><polygon points="222,694 286,629 405,637 477,699 468,755 405,787 289,780 214,741"/></object></objectgroup>
 <objectgroup id="4" name="30 Routes — exact source geometry" color="#f8f4dd" visible="0"><object id="11" name="ore-line" type="Route" x="380" y="335"><properties><property name="worldscape_id" value="route.industrial.ore-line"/><property name="route_kind" value="rail"/><property name="corridor_width" type="float" value="4.4"/><property name="source" value="Four Crowns exact"/></properties><polyline points="0,0 210,68 340,132 470,216 590,305 695,381"/></object><object id="12" name="quarry-haul" type="Route" x="850" y="273"><properties><property name="worldscape_id" value="route.industrial.quarry-haul"/><property name="route_kind" value="road"/><property name="corridor_width" type="int" value="19"/><property name="source" value="Four Crowns exact"/></properties><polyline points="0,0 -108,48 -175,117 -204,207 -170,292"/></object><object id="13" name="main-haul" type="Route" x="680" y="565"><properties><property name="worldscape_id" value="route.industrial.main-haul"/><property name="route_kind" value="road"/><property name="corridor_width" type="int" value="22"/><property name="source" value="Four Crowns exact"/></properties><polyline points="0,0 24,49 140,105 263,125 342,213 455,205"/></object><object id="14" name="timber-haul" type="Route" x="1215" y="480"><properties><property name="worldscape_id" value="route.industrial.timber-haul"/><property name="route_kind" value="road"/><property name="corridor_width" type="int" value="19"/><property name="source" value="Four Crowns exact"/></properties><polyline points="0,0 -55,90 23,143 38,259 -3,334 -80,290"/></object><object id="15" name="district-exit" type="Route" x="943" y="690"><properties><property name="worldscape_id" value="route.industrial.district-exit"/><property name="route_kind" value="road"/><property name="corridor_width" type="int" value="22"/><property name="source" value="Four Crowns exact"/></properties><polyline points="0,0 -9,96 102,203 225,241 327,334"/></object><object id="16" name="home-path" type="Route" x="420" y="770"><properties><property name="worldscape_id" value="route.industrial.home-path"/><property name="route_kind" value="path"/><property name="corridor_width" type="int" value="8"/><property name="source" value="Four Crowns exact"/></properties><polyline points="0,0 45,-53 82,-119 168,-156 190,-180 260,-205"/></object><object id="17" name="mine-path" type="Route" x="354" y="390"><properties><property name="worldscape_id" value="route.industrial.mine-path"/><property name="route_kind" value="path"/><property name="corridor_width" type="int" value="8"/><property name="source" value="Four Crowns exact"/></properties><polyline points="0,0 41,73 161,119 239,163 326,175"/></object><object id="18" name="pen-path" type="Route" x="420" y="770"><properties><property name="worldscape_id" value="route.industrial.pen-path"/><property name="route_kind" value="path"/><property name="corridor_width" type="int" value="6"/><property name="source" value="Four Crowns exact"/></properties><polyline points="0,0 45,-53 84,-77 105,-86"/></object></objectgroup>
 <objectgroup id="5" name="40 Topography — exact source geometry" color="#48c9b0" visible="0"><object id="19" name="northwest-cliff" type="Landform" x="0" y="0"><properties><property name="worldscape_id" value="landform.industrial.northwest-cliff"/><property name="material" value="rock"/></properties><polygon points="0,0 788,0 745,85 614,145 554,220 462,240 441,291 433,320 397,330 367,322 281,323 233,424 104,441 0,398"/></object><object id="20" name="upper-ridge" type="Landform" x="0" y="0"><properties><property name="worldscape_id" value="landform.industrial.upper-ridge"/><property name="material" value="rock"/></properties><polygon points="770,0 1020,0 1000,98 952,129 908,105 841,153 788,128 721,155 726,75"/></object><object id="21" name="western-forest" type="Landform" x="0" y="0"><properties><property name="worldscape_id" value="landform.industrial.western-forest"/><property name="material" value="forest"/></properties><polygon points="0,467 120,483 177,444 255,458 280,505 233,548 264,595 216,654 154,663 120,741 0,801"/></object><object id="22" name="southern-forest" type="Landform" x="0" y="0"><properties><property name="worldscape_id" value="landform.industrial.southern-forest"/><property name="material" value="forest"/></properties><polygon points="0,853 148,812 210,837 276,812 302,881 350,904 342,971 397,1024 0,1024"/></object><object id="23" name="eastern-forest" type="Landform" x="0" y="0"><properties><property name="worldscape_id" value="landform.industrial.eastern-forest"/><property name="material" value="forest"/></properties><polygon points="1201,0 1536,0 1536,687 1433,662 1404,578 1360,550 1379,461 1315,406 1328,338 1226,305 1167,224 1189,127 1146,98"/></object><object id="24" name="southeast-outcrop" type="Landform" x="0" y="0"><properties><property name="worldscape_id" value="landform.industrial.southeast-outcrop"/><property name="material" value="rock"/></properties><polygon points="1250,1024 1232,967 1325,889 1354,792 1439,740 1536,763 1536,1024"/></object><object id="25" name="river" type="Water" x="0" y="0"><properties><property name="worldscape_id" value="water.industrial.river"/></properties><polygon points="1050,0 1034,130 968,250 889,387 832,505 818,517 812,543 761,620 740,647 732,663 607,811 429,1024 499,1024 669,811 797,663 802,647 820,620 853,543 881,517 879,505 952,387 1024,250 1093,130 1122,0"/></object></objectgroup>
 <objectgroup id="6" name="45 Detailed source geometry" color="#ec7063" visible="0"><object id="26" name="ore-bridge" type="Bridge" x="779" y="505.74"><properties><property name="worldscape_id" value="bridge.industrial.ore-bridge"/><property name="route_id" value="ore-line"/><property name="corridor_width" type="int" value="20"/></properties><polyline points="0,0 109,73.43999999999994"/></object><object id="27" name="haul-bridge" type="Bridge" x="720" y="621.72"><properties><property name="worldscape_id" value="bridge.industrial.haul-bridge"/><property name="route_id" value="main-haul"/><property name="corridor_width" type="int" value="29"/></properties><polyline points="0,0 100,48.27999999999997"/></object><object id="28" name="quarry-level-crossing" type="Crossing" x="659.746975509" y="437.336972558"><properties><property name="worldscape_id" value="crossing.industrial.quarry-level-crossing"/><property name="crossing_kind" value="level"/><property name="priority" value="ore-line"/></properties><point/></object><object id="29" name="mine apron" type="WorkArea" x="0" y="0"><properties><property name="worldscape_id" value="workarea.industrial.mine-apron"/></properties><polygon points="340,359 369,334 410,334 450,346 466,373 448,392 404,398 351,373"/></object><object id="30" name="mine cliff face" type="LandformDetail" x="0" y="0"><properties><property name="worldscape_id" value="landform-detail.industrial.mine-cliff-face"/></properties><polygon points="346,283 394,271 432,291 433,320 422,333 407,325 380,328 356,321"/></object><object id="31" name="mine cliff crown" type="LandformDetail" x="0" y="0"><properties><property name="worldscape_id" value="landform-detail.industrial.mine-cliff-crown"/></properties><polygon points="346,283 394,271 432,291 402,303 367,307"/></object><object id="32" name="mine service path" type="RouteDetail" x="354" y="390"><properties><property name="worldscape_id" value="route-detail.industrial.mine-service"/><property name="corridor_width" type="int" value="5"/></properties><polyline points="0,0 0,-20 6,-40 6,-54"/></object><object id="33" name="mine stock" type="Socket" x="443" y="382"><properties><property name="worldscape_id" value="socket.industrial.mine.stock"/></properties><point/></object><object id="34" name="mine timber" type="Socket" x="359" y="360"><properties><property name="worldscape_id" value="socket.industrial.mine.timber"/></properties><point/></object><object id="35" name="quarry bench" type="WorkArea" x="0" y="0"><properties><property name="worldscape_id" value="workarea.industrial.quarry-bench"/></properties><polygon points="764,164 818,143 860,157 876,190 856,221 807,240 763,216 749,191"/></object><object id="36" name="cottage pen" type="WorkArea" x="0" y="0"><properties><property name="worldscape_id" value="workarea.industrial.cottage-pen"/></properties><polygon points="534,655 608,675 591,735 515,713"/></object><object id="37" name="cottage pen gate" type="Socket" x="525" y="684"><properties><property name="worldscape_id" value="socket.industrial.cottage.pen-gate"/></properties><point/></object><object id="38" name="pen resident 1" type="Resident" x="543" y="681"><properties><property name="worldscape_id" value="resident.industrial.cottage-pen.1"/></properties><point/></object><object id="39" name="pen resident 2" type="Resident" x="574" y="690"><properties><property name="worldscape_id" value="resident.industrial.cottage-pen.2"/></properties><point/></object><object id="40" name="pen resident 3" type="Resident" x="559" y="711"><properties><property name="worldscape_id" value="resident.industrial.cottage-pen.3"/></properties><point/></object></objectgroup>
 <objectgroup id="7" name="50 Sockets" color="#ffffff" visible="0"><object id="41" name="mine.entrance" type="Socket" x="354" y="390"><properties><property name="worldscape_id" value="socket.industrial.mine.entrance"/><property name="socket_kind" value="entrance"/></properties><point/></object><object id="42" name="mine.loading" type="Socket" x="380" y="335"><properties><property name="worldscape_id" value="socket.industrial.mine.loading"/><property name="socket_kind" value="loading"/></properties><point/></object><object id="43" name="mine.work" type="Socket" x="357" y="350"><properties><property name="worldscape_id" value="socket.industrial.mine.work"/><property name="socket_kind" value="work"/></properties><point/></object><object id="44" name="quarry.entrance" type="Socket" x="850" y="273"><properties><property name="worldscape_id" value="socket.industrial.quarry.entrance"/><property name="socket_kind" value="entrance"/></properties><point/></object><object id="45" name="quarry.loading" type="Socket" x="872" y="258"><properties><property name="worldscape_id" value="socket.industrial.quarry.loading"/><property name="socket_kind" value="loading"/></properties><point/></object><object id="46" name="quarry.work" type="Socket" x="849" y="230"><properties><property name="worldscape_id" value="socket.industrial.quarry.work"/><property name="socket_kind" value="work"/></properties><point/></object><object id="47" name="logging.entrance" type="Socket" x="1215" y="480"><properties><property name="worldscape_id" value="socket.industrial.logging.entrance"/><property name="socket_kind" value="entrance"/></properties><point/></object><object id="48" name="logging.loading" type="Socket" x="1187" y="448"><properties><property name="worldscape_id" value="socket.industrial.logging.loading"/><property name="socket_kind" value="loading"/></properties><point/></object><object id="49" name="logging.work" type="Socket" x="1219" y="454"><properties><property name="worldscape_id" value="socket.industrial.logging.work"/><property name="socket_kind" value="work"/></properties><point/></object><object id="50" name="foundry.entrance" type="Socket" x="1135" y="770"><properties><property name="worldscape_id" value="socket.industrial.foundry.entrance"/><property name="socket_kind" value="entrance"/></properties><point/></object><object id="51" name="foundry.loading" type="Socket" x="1075" y="716"><properties><property name="worldscape_id" value="socket.industrial.foundry.loading"/><property name="socket_kind" value="loading"/></properties><point/></object><object id="52" name="foundry.work" type="Socket" x="1125" y="748"><properties><property name="worldscape_id" value="socket.industrial.foundry.work"/><property name="socket_kind" value="work"/></properties><point/></object><object id="53" name="cottage.entrance" type="Socket" x="420" y="770"><properties><property name="worldscape_id" value="socket.industrial.cottage.entrance"/><property name="socket_kind" value="entrance"/></properties><point/></object><object id="54" name="cottage.work" type="Socket" x="436" y="739"><properties><property name="worldscape_id" value="socket.industrial.cottage.work"/><property name="socket_kind" value="work"/></properties><point/></object></objectgroup>
</map>